X:6
T:The Battle of the Somme
Z:Jack Campin, 2006, http://www.campin.me.uk/
M:9/8
L:1/8
Q:3/8=90
K:D
A|f<af d3 d>cd|e>dG B3 A3|B>GB A3 d3|f<af e3- e2
A|f<af d3 d>cd|e>dG B3 A3|B>GB A3 f3|e>fe d3- d2:|
A|d>cd e3 A2e |e>fg a3 d3|d>ef g3 A3|f<af e3- e2
A|f<af d3 d>cd|e>dG B3 A3|B>GB A3 f3|e>fe d3- d2:|

